X: 20
T: The Lilting Banshee
B: begged borrowed and stolen
M:6/8
L:1/8
R: jig
Q: 3/8=100
K:Adorian
V:1 
|:"Am"EAA EAA|"G"BAB G2A|"Em"Bee edB|"G"def gfg|
"Am"eaa age|"G"dBA G2A|"Em"Bee edB|1"G"BAG "Am"A3:|2 "G"dBA "Am"A2d|| 
|:"Am"eaa age|"G"dBA G2A|"Em" Bee edB|"D"def "G"gfg|
 "Am"eaa age|"G"dBA G2A|"Em"Bee edB|1"G"BAG "Am"A2d:|2"G"BAG "A"A3||
% abcbook-tune_id 62828a3a83b814d4d3368b23


% abcbook-boost 0
% abcbook-tablature 
% abcbook-transpose 
% abcbook-lastupdated 1652725431053
% abcbook-soundfonts 
% abcbook-repeats 3
% abc-sessionorg_id 60
% abc-sessionorg_setting 0
% abc-sessionorg_setting_id 34816
% abc-boost 1

